X: 20489
T: John Kelly's College Groves
R: reel
M: 4/4
K: Dmajor
ADFD ADFD|GBBA GE~E2|EFAF A2dB|cAGE EDDF|
ABFD ADFD|GBBA GE~E2|DFAF AddB|cAGE EDDe||
~f3f- ~f2gf|eA (3cBA EA (3cBA|~f3f- ~f2gf|edcA BA~A2|
~f3f- ~f2gf|eA (3cBA eAfg|~a3f gfeg|~f2eg fedz||

